X:664
T:Mr. George Anderson
R:Strathspey
B:The Athole Collection
M:C
L:1/8
K:G
D>G B<G c<AB<d|D>G B<d c/B/A/G/ F>A|D>G B<G c<AB<G|
D>d d/e/d/c/ B<GG:|
g|f<d d>f g<d d>g|=f<c cf/c/ A<F F>g|f<d d>f g<d d>g|f/g/ag>f g<d d>g|
f<d d>f g<d d>g|=f<c cf/c/ A<F F>A|D>G B<G c<AB<G|D>d d/e/d/c/ B<GG||

